modules/web-icons/icons/payment.svg

<svg xmlns="http://www.w3.org/2000/svg" width="64" height="64.005" viewBox="0 0 64 64.005"><path fill-rule="evenodd" clip-rule="evenodd" d="M56,56.005H8c-4.418,0-8-3.582-8-8v-20h64v20C64,52.423,60.418,56.005,56,56.005z M8,48.005h32v-4H8V48.005z M16,36.005H8v4h8V36.005z M32,36.005h-8v4h8V36.005z M48,36.005h-8v4h8V36.005z M0,16.005 c0-4.418,3.582-8,8-8h48c4.418,0,8,3.582,8,8v4H0V16.005z"/></svg>

<svg xmlns="http://www.w3.org/2000/svg" width="64" height="64.005"><path fill-rule="evenodd" clip-rule="evenodd" d="M56 56.005H8a8 8 0 0 1-8-8v-20h64v20a8 8 0 0 1-8 8zm-48-8h32v-4H8v4zm8-12H8v4h8v-4zm16 0h-8v4h8v-4zm16 0h-8v4h8v-4zm-48-20a8 8 0 0 1 8-8h48a8 8 0 0 1 8 8v4H0v-4z"/></svg>
